dist/img/icons/heroku/heroku-plain.svg

<svg xmlns="http://www.w3.org/2000/svg" viewBox="0 0 128 128"><path fill="#6762A6" d="M102.1 2h-76.2c-6.6 0-11.9 5.3-11.9 11.9v100.3c0 6.6 5.3 11.9 11.9 11.9h76.3c6.6 0 11.9-5.3 11.9-11.9v-100.3c-.1-6.6-5.4-11.9-12-11.9zm-65.1 106.7v-28.2l14.1 14.1-14.1 14.1zm53 .3h-13.1l.1-.2v-49.4s3.1-11.8-39.7 4.8c-.1.2-.2-45.7-.2-45.7l13.9-.1v29.4s39-15.4 39 11.7v49.5zm-5.2-73h-14.8c5.3-6 10.2-17 10.2-17h15.3s-2.6 7-10.7 17z"/></svg>

<svg xmlns="http://www.w3.org/2000/svg" viewBox="0 0 128 128"><path fill="#6762A6" d="M102.1 2H25.9C19.3 2 14 7.3 14 13.9v100.3c0 6.6 5.3 11.9 11.9 11.9h76.3c6.6 0 11.9-5.3 11.9-11.9V13.9C114 7.3 108.7 2 102.1 2zM37 108.7V80.5l14.1 14.1L37 108.7zm53 .3H76.9l.1-.2V59.4s3.1-11.8-39.7 4.8c-.1.2-.2-45.7-.2-45.7l13.9-.1v29.4s39-15.4 39 11.7V109zm-5.2-73H70c5.3-6 10.2-17 10.2-17h15.3s-2.6 7-10.7 17z"/></svg>
